X:19074
T:Shrewsbury Waltz
T:Sheffield Waltz
R:Waltz
C:Trad.
O:England; Shropshire
Z:Paul Hardy's Session Tunebook 2022 (see www.paulhardy.net). Creative Commons cc by-nc-sa licenced.
M:3/4
L:1/8
Q:1/4=130
K:G
Bc|"G"d2 dB "C"ce|"G"d2 B2 G2|"D"FA dc AF|"G"GF GA Bc|dB dB "C"ce|"G"d2 B2 G2|"D7"FA dc AF|"G" G4:|
|:Bc|"D"de fg ab|"G"g2 g2 dB|"C"c2 ec ec|"G"d2 B2 Bc|"D"de fg ab|"G"g2 g2 dB|"C"c2 ec "D7"AF|"G"G4:|

